icons/evolvere-blue-folders-flat-vivid-dark-fallback/mimetypes/64/image-jpg.svg

<?xml version="1.0" encoding="UTF-8" standalone="no"?>
<!-- Created with Inkscape (http://www.inkscape.org/) -->

<svg
   xmlns:dc="http://purl.org/dc/elements/1.1/"
   xmlns:cc="http://creativecommons.org/ns#"
   xmlns:rdf="http://www.w3.org/1999/02/22-rdf-syntax-ns#"
   xmlns:svg="http://www.w3.org/2000/svg"
   xmlns="http://www.w3.org/2000/svg"
   xmlns:sodipodi="http://sodipodi.sourceforge.net/DTD/sodipodi-0.dtd"
   xmlns:inkscape="http://www.inkscape.org/namespaces/inkscape"
   version="1.1"
   width="64"
   height="64"
   id="svg13094"
   inkscape:version="0.48.4 r9939"
   sodipodi:docname="image-jpg.svg">
  <sodipodi:namedview
     pagecolor="#ffffff"
     bordercolor="#666666"
     borderopacity="1"
     objecttolerance="10"
     gridtolerance="10"
     guidetolerance="10"
     inkscape:pageopacity="0"
     inkscape:pageshadow="2"
     inkscape:window-width="1920"
     inkscape:window-height="1022"
     id="namedview78"
     showgrid="true"
     inkscape:zoom="7.375"
     inkscape:cx="50.255748"
     inkscape:cy="32.648887"
     inkscape:window-x="-5"
     inkscape:window-y="23"
     inkscape:window-maximized="1"
     inkscape:current-layer="svg13094"
     showguides="false"
     inkscape:snap-bbox="true"
     inkscape:bbox-paths="true"
     inkscape:bbox-nodes="true"
     inkscape:snap-bbox-edge-midpoints="true"
     inkscape:snap-bbox-midpoints="true"
     inkscape:guide-bbox="true">
    <sodipodi:guide
       orientation="0,1"
       position="28.236332,31.975608"
       id="guide3112" />
    <sodipodi:guide
       orientation="0,1"
       position="28.907484,30.96888"
       id="guide3114" />
    <inkscape:grid
       type="xygrid"
       id="grid3125" />
  </sodipodi:namedview>
  <defs
     id="defs11">
    <linearGradient
       x1="48.917568"
       y1="46.213669"
       x2="32.669781"
       y2="24"
       id="linearGradient4259-6-1"
       gradientUnits="userSpaceOnUse">
      <stop
         id="stop3988-6-1"
         style="stop-color:#ffffff;stop-opacity:0.52975047"
         offset="0" />
      <stop
         id="stop3990-9-2"
         style="stop-color:#ffffff;stop-opacity:0"
         offset="1" />
    </linearGradient>
  </defs>
  <metadata
     id="metadata13099">
    <rdf:RDF>
      <cc:Work
         rdf:about="">
        <dc:format>image/svg+xml</dc:format>
        <dc:type
           rdf:resource="http://purl.org/dc/dcmitype/StillImage" />
        <dc:title />
      </cc:Work>
    </rdf:RDF>
  </metadata>
  <path
     inkscape:connector-curvature="0"
     d="M 4,0 64,0 64,62 4,62 z"
     id="path3960"
     style="fill:#c7d3db;fill-opacity:1;fill-rule:nonzero" />
  <path
     inkscape:connector-curvature="0"
     style="fill:#222e33;fill-opacity:0.12192981;fill-rule:nonzero"
     d="M 60,2 60,33 35.677734,62 64,62 64,37 64,6 60,2 z"
     id="path3900" />
  <path
     inkscape:connector-curvature="0"
     d="M 0,2 60,2 60,33 34,64 0,64 z"
     id="path4257"
     style="fill:url(#linearGradient4259-6-1);fill-rule:nonzero" />
  <path
     inkscape:connector-curvature="0"
     d="M 0,2 60,2 60,33 34,64 0,64 z"
     id="path3982"
     style="color:#000000;fill:#edf0f2;fill-opacity:1;fill-rule:nonzero;stroke:none;stroke-width:1;marker:none;visibility:visible;display:inline;overflow:visible;enable-background:accumulate" />
  <path
     style="fill:#4198ef;fill-opacity:1"
     id="path3206"
     d="M 0,2 0,64 34,64 48.75,46.40625 C 23.38374,38.8908 16.85158,10.20643 40.28856,2 z"
     inkscape:connector-curvature="0" />
  <path
     style="color:#000000;fill:#71c526;fill-opacity:1;fill-rule:nonzero;stroke-width:1;stroke-linecap:butt;stroke-linejoin:miter;stroke-miterlimit:4;stroke-opacity:1;stroke-dasharray:none;stroke-dashoffset:0;marker:none;visibility:visible;display:inline;overflow:visible;enable-background:accumulate"
     id="path3218"
     d="M 0,2 V 64 H 1.375 L 25.59375,54.6875 C 10.63785,21.18462 22.13706,3.27392 45.1875,2 H 0 z"
     inkscape:connector-curvature="0" />
  <path
     style="color:#000000;fill:#fac922;fill-opacity:1;fill-rule:nonzero;stroke:none;stroke-width:1;marker:none;visibility:visible;display:inline;overflow:visible;enable-background:accumulate"
     id="path3230"
     d="m 0,2 0,62 34,0 8.09375,-9.65625 C 19.16066,43.85109 2.46594,18.27914 14.0625,2 z"
     inkscape:connector-curvature="0" />
  <path
     style="color:#000000;fill:#f36827;fill-opacity:1;fill-rule:nonzero;stroke-width:1;stroke-linecap:butt;stroke-linejoin:miter;stroke-miterlimit:4;stroke-opacity:1;stroke-dasharray:none;stroke-dashoffset:0;marker:none;visibility:visible;display:inline;overflow:visible;enable-background:accumulate"
     id="path3234"
     d="m 0,2 0,62 26.15625,0 C 7.78286,42.4157 1.23397,18.31215 8.71875,2 z"
     inkscape:connector-curvature="0" />
  <path
     inkscape:connector-curvature="0"
     d="M 34,64 60,33 c -2.328567,2.776369 -4.36141,3 -11,3 H 37 v 15 c 0,6.644068 0.04437,9.370179 -3,13 z"
     id="path4278"
     style="fill:#c0cfd7;fill-opacity:1;fill-rule:nonzero" />
</svg>

<svg xmlns="http://www.w3.org/2000/svg" viewBox="0 0 64 64"><defs><linearGradient x1="48.918" y1="46.21" x2="32.67" y2="24" id="0" gradientUnits="userSpaceOnUse"><stop stop-color="#fff" stop-opacity=".53"/><stop offset="1" stop-color="#fff" stop-opacity="0"/></linearGradient></defs><path d="m4 0h60v62h-60z" fill="#c7d3db"/><path d="m60 2v31l-24.322 29h28.322v-25-31l-4-4" fill="#222e33" fill-opacity=".122"/><path d="m0 2h60v31l-26 31h-34z" fill="url(#0)"/><path d="m0 2h60v31l-26 31h-34z" fill="#edf0f2" color="#000"/><path d="m0 2v62h34l14.75-17.594c-25.366-7.515-31.898-36.2-8.461-44.41z" fill="#4198ef"/><g color="#000"><path d="m0 2v62h1.375l24.22-9.313c-14.956-33.503-3.457-51.41 19.594-52.688h-45.19" fill="#71c526"/><path d="m0 2v62h34l8.094-9.656c-22.933-10.493-39.628-36.06-28.03-52.34z" fill="#fac922"/><path d="m0 2v62h26.16c-18.373-21.584-24.922-45.688-17.438-62z" fill="#f36827"/></g><path d="m34 64l26-31c-2.329 2.776-4.361 3-11 3h-12v15c0 6.644.044 9.37-3 13" fill="#c0cfd7"/></svg>
